!! 00000] TT[WS
!!!OTL: Nao wugeng
!!!ARE: Asia, China, Shanxi Cuoquan
!! Ethnic Group: Han
!! WII, 121 (1)
!!!SCT: J0585
!!!YEM: Copyright 1995, estate of Helmut Schaffrath.
**kern
*ICvox
*Ivox
*M2/4
*k[f#]
*G:
{8r
4dd
8b
=1
4a
8r
[8dd
=2
8dd]
8b
4a}
=3
{8g
8a
8g
8a
=4
8r
4dd
8b
=5
4a}
{8b
8dd
=6
8b
8dd
8b
8a
=7
4g}
{8g
8b
=8
8a
8g
8r
[8f#
=9
8f#]
8e
4d}
==
!!!AGN: Xiaodiao. Qingge, Aisu
!!!ONB: ESAC (Essen Associative Code) Database: CHINA
!!!AMT: simple duple
!!!AIN: vox
!!!EED: Helmut Schaffrath
!!!EEV: 1.0
*-
!!!ONB: Tied note syntax fixed by Craig Sapp, 2004/05/03/
